app/style/graphics/spriteSheets/characters/pacman/arrow_left.svg

<?xml version="1.0" encoding="UTF-8"?><svg id="Calque_1" xmlns="http://www.w3.org/2000/svg" viewBox="0 0 32 32"><defs><style>.cls-1{fill:#68ace5;}</style></defs><path class="cls-1" d="M3,15v1h1v1h1v1h1v-5h-1v1h-1v1h-1Z"/></svg>

<svg width="32" height="32" viewBox="0 0 32 32" fill="none" xmlns="http://www.w3.org/2000/svg">
<path d="M3 15V16H4V17H5V18H6V13H5V14H4V15H3Z" fill="#FFF295"/>
</svg>
